X:17
T:Bourree pastourelle
Z:Jack Campin, 2014
F:http://www.campin.me.uk/Music/YoupNannetteD.abc
S:p25, p1000214.jpg
M:3/8
L:1/8
Q:1/4=120
K:G
D|GGA|BcB|AG/A/G/A/|BG\
D|GGA|BcB|AF/A/F/A/|G2:|
B|A2F|D2D|GG/F/G/A/|BG\
B|A2F|D2D|GG/A/B/A/|G2:|

